src/assets/bnb.svg

<svg fill="none" viewBox="0 0 16 16" xmlns="http://www.w3.org/2000/svg"><path d="m8 16c4.4183 0 8-3.5817 8-8 0-4.41828-3.5817-8-8-8-4.41828 0-8 3.58172-8 8 0 4.4183 3.58172 8 8 8z" fill="#f3ba2f"/><g fill="#fff"><path clip-rule="evenodd" d="m8.00048 5.07744-2.07179 2.07179.00004-.00009-1.20542-1.20547 3.27717-3.27717 3.27822 3.27816-1.2055 1.20546zm-4.1283 1.71809-1.20551 1.20568 1.20542 1.20526 1.20552-1.20551zm2.05692 2.05695 2.07178 2.07162 2.07272-2.0726 1.2061 1.2048-.0006.0007-3.27822 3.2781-3.27717-3.2772-.00171-.0017zm6.2002-2.05695-1.2055 1.20551 1.2055 1.20543 1.2055-1.20551z" fill-rule="evenodd"/><path d="m9.22383 8.00056h.00051l-1.22314-1.22322-.90408.90383-.10386.1039-.21421.21426-.00171.00166.00171.00175 1.22215 1.22233 1.22323-1.22323.00059-.00068-.00111-.0006"/></g></svg>

<svg viewBox="0 0 16 16" fill="none" xmlns="http://www.w3.org/2000/svg">
    <path d="M8 16C12.4183 16 16 12.4183 16 8C16 3.58172 12.4183 0 8 0C3.58172 0 0 3.58172 0 8C0 12.4183 3.58172 16 8 16Z" fill="#F3BA2F"/>
    <path fill-rule="evenodd" clip-rule="evenodd" d="M8.00048 5.07744L5.92869 7.14923L5.92873 7.14914L4.72331 5.94367L8.00048 2.6665L11.2787 5.94466L10.0732 7.15012L8.00048 5.07744ZM3.87218 6.79553L2.66667 8.00121L3.87209 9.20647L5.07761 8.00096L3.87218 6.79553ZM5.9291 8.85248L8.00088 10.9241L10.0736 8.8515L11.2797 10.0563L11.2791 10.057L8.00088 13.3351L4.72371 10.0579L4.722 10.0562L5.9291 8.85248ZM12.1293 6.79553L10.9238 8.00104L12.1293 9.20647L13.3348 8.00096L12.1293 6.79553Z" fill="white"/>
    <path d="M9.22383 8.00056H9.22434L8.0012 6.77734L7.09712 7.68117V7.68117L6.99326 7.78507L6.77905 7.99933L6.77734 8.00099L6.77905 8.00274L8.0012 9.22507L9.22443 8.00184L9.22502 8.00116L9.22391 8.00056" fill="white"/>
</svg>
